!!!OTL: ACH DU KLARER BLAUER HIMMEL
!!!ARE: Europa, Mitteleuropa, Deutschland
!!!SCT: B0292
!!!YEM: Copyright 1995, estate of Helmut Schaffrath.
**kern
*ICvox
*Ivox
*M3/8
*k[b-]
*F:
{16.a
32b-
=1
8cc
8.g
16a
=2
8g
8f}
{16.f
32f
=3
8.ff
16ee
8dd
=4
4cc}
{16cc
16dd
=5
8ee
8cc
8dd
=6
8ee
8cc}
{16bn
16a
=7
8g
8.dd
16ee
=8
4cc}
{16dd
16cc
=9
8b-
8b-
16a
16cc
=10
4b-}
{16.g
32a
=11
8cc
8.b-
16b-
=12
4ee}
{16a
16a
=13
8ff
8ee
8dd
=14
8.cc
16b-}
{8a
=15
8a
8f
16g
16cc
=16
4a}
==
!!!AGN: Stimmungs - Lied, Freude
!!!ONB: ESAC (Essen Associative Code) Database: BOEHME
!!!AMT: simple triple
!!!AIN: vox
!!!EED: Helmut Schaffrath
!!!EEV: 1.0
*-
